X:171
%%pagewidth 9.5in
%%vocalfont Baskerville10Pro 14
T:Hunt the hare
M:6/8
L:1/8
K:C
%%score 1 2
V:1 clef-treble
V:2 clef-bass octave=-1
V:1
"_fp"[Ec]2C EFG|Adc BAB &F6|"_fp"[Ec]2C EFG|AdB c3 &F3 E3|
w:Songs of shep-herds and rus-ti-cal roun-de-lays, Form'd of fancies,* and whistl-ed on reeds,
V:2
({C,/}C6-)|F3 G3 &C6|({C,/}C6-)|F2G c3 &C6|
V:1
"_fp"[Ec]2C EFG|Adc BAB &F6|"_fp"[Ec]2C EFG|AdB c3 &F3 E3||
w:Sung to sol-ace young mymphs up-on ho-li-days, Are too un-worthy for won-der-ful deeds.
V:2
({C,/}C6-)|F3 G3 &C6|({C,/}C6-)|F2G C3 &C6||
V:1
"_p" !<(! [ce]dc [Be]dc|[Ae]dc [Ge]dc|[Fd]Bc [Ed]Bc|[Dd]f[ce] [Bd]3| 
w:Sot-tish Si-le-nus To Phoe-bus the geni-us Was sent by dame Ve-nus a song to pre-pare,
V:2
A3G3|F3E3|D3C3|B,2CG,3|
V:1
!<)! "_fp" [Ec]2C EFG|Adc BAB &F6|!mp![Ec]2C EFG|AdB c3 &F2F E3||
w:In phrase nice-ly coin'd, And in verse quite re-fin'd, How the states di-vine hunt-ed the hare.
V:2
A,3G,3|F,3 G,3|A,3 G,3|F,2G, C,3||

